X:1
T:We’ll Understand It Better By and By
T:Charles Albert Tindley, 1905
T:We’ll Understand It Better By and By
T:Public Domain
T:Public Domain
T:Public Domain
C:Charles Albert Tindley, 1905
Z:Public Domain
%%score ( 1 2 ) ( 3 4 )
L:1/8
M:4/4
K:F
V:1 treble 
V:2 treble 
V:3 bass 
V:4 bass 
V:1
 [C-F][CG] | [FA]->[FA] [FA]->[FA] [FA]2 [FG]F | [DG][DF] [DF]>D [CF]2 [CF]>[CG] | %3
w: 1.~We~are *|tossed * and * driv’n on the|rest- less sea of time; Som- ber|
w: 2.~We~are *|often * desti- * tute of the|things that life de- mands, Want of|
w: 3.~Trials *|dark~on * every * hand, and we|can- not un- der- stand All the|
w: 4.~Temp- *|tations, * hidden * snares oft- en|take us un- a- wares, And our|
 [FA][FA][FA][FA] [FA-][CA] [DG]>[CF] | [=B,G]>[B,^F] [B,G]>[=FA] [EG]2 [CF]>[CG] | %5
w: skies and how- ling tempests oft suc- ceed|a bright sun- shine; In that land|
w: food and want of shelter, thirst- y hills|and bar- ren lands; We are trust-|
w: ways that God could lead~us to that bless-|èd prom- ised land; But He guides|
w: hearts are made to bleed for a thought-|less word or deed; And we won-|
 [FA]>[FA] [FA]>[Fc] [FA]2 [_EG][EF] | [DG]>[DF] [DF]>D [CF]2 [CF]>[CG] | %7
w: of per- fect day, when the mists|have rolled a- way, We will un-|
w: ing in the Lord, and ac- cord-|ing to God’s Word, We will un-|
w: us with His eye, and we’ll fol-|low till we die, For we’ll un-|
w: der why the test when we try|to do our best, But we’ll un-|
 [FA]>[FA] [FA]>[FA] GF [EG]>[EA] | (z2 D_D C2) ||"^Refrain" [Fc]3 [Fd] (F2 _E2) | %10
w: stand it bet- ter by and by. *|||
w: stand it bet- ter by and by. *|||
w: stand it bet- ter by and by. *|||
w: stand it bet- ter by and by. *|||
 [DG]>[DF] [DF]>D [CF]2 z2 | [Fc]3 [Fd] [FA]3 [CF] | [=B,G]>[B,F] [B,G]>[FA] [EG]2 z [FA] | %13
w: |||
w: |||
w: |||
w: |||
 [Fc]3 [Fd] [FA]3 [CF] | [DG]>[DF] F>D [CF]2 [CF]>[CG] | [FA]>[FA] [FA]>[FA] GF [EG]>[EA] | %16
w: |||
w: |||
w: |||
w: |||
 [CF]6 |] %17
w: |
w: |
w: |
w: |
V:2
 x2 | x8 | x8 | x8 | x8 | x8 | x7/2 D/ x4 | x4 E x3 | [CF]6 || x4 A4 | x7/2 D/ x4 | x8 | x8 | x8 | %14
w: ||||||der-||||||||
w: ||||||der-||||||||
w: ||||||der-||||||||
w: ||||||der-||||||||
 x2 D3/2 x9/2 | x4 E x3 | x6 |] %17
w: |||
w: |||
w: |||
w: |||
V:3
 [F,-A,][F,B,] | [F,C]->[F,C] [F,C]->[F,C] [F,C]2 [F,B,][F,A,] | %2
w: ~ *|~ * ~ * ~ ~ ~|
 [B,,B,][B,,B,] [B,,B,]>[B,,B,] [F,A,]2 [F,A,]>[F,B,] | %3
w: ~ ~ ~ ~ ~ ~ ~|
 [F,C][F,C][F,C][F,C] [F,-C][F,A,] [F,B,]>[F,A,] | %4
w: ~ ~ ~ ~ ~ * ~ ~|
 [G,,G,]>[G,,G,] [G,,G,]>[G,=B,] (C_B,) [F,A,]>[F,B,] | %5
w: ~ ~ ~ ~ ~ * ~ ~|
 [F,C]>[F,C] [F,C]>[F,A,] [F,C]2 [F,A,][F,A,] | %6
w: ~ ~ ~ ~ ~ ~ ~|
 [B,,B,]>[B,,B,] [B,,B,]>[B,,F,] [F,A,]2 [F,A,]>[F,B,] | %7
w: ~ ~ ~ ~ ~ ~ ~|
 [F,C]>[F,C] [F,C]>[F,C] [C,B,][C,A,] [C,B,]>[C,C] | (z2 B,B, A,2) || [F,A,]3 [F,B,] [F,C]4 | %10
w: ~ ~ ~ ~ ~ ~ ~ ~||and by, when|
 [B,,B,]>[B,,B,] [B,,B,]>[B,,F,] [F,A,]2 z2 | [F,A,]3 [F,B,] [F,C]3 [F,A,] | %12
w: the morn- ing comes, When|the saints of God|
 [G,,G,]>[G,,G,] [G,,G,]>[G,=B,] [C,C]2 z [F,C] | [F,A,]3 [F,B,] [F,C]3 [F,A,] | %14
w: are ga- thered home, We’ll tell|the stor- y how|
 [B,,B,]>[B,,B,] [B,,B,]>[B,,B,] [F,A,]2 [F,A,]>[F,B,] | %15
w: we’ve o- ver- come, For we’ll un-|
 [F,C]>[F,C] [F,C]>[F,C] [C,B,][C,A,] [C,B,]>[C,C] | [F,A,]6 |] %17
w: der- stand it bet- ter by and by.||
V:4
 x2 | x8 | x8 | x8 | x4 C,2 x2 | x8 | x8 | x8 | [F,A,]6 || x8 | x8 | x8 | x8 | x8 | x8 | x8 | x6 |] %17
w: ||||~||||By|||||||||

